public/projects-link/website.svg

<svg xmlns="http://www.w3.org/2000/svg" xmlns:vectornator="http://vectornator.io" xml:space="preserve" stroke-miterlimit="10" style="fill-rule:nonzero;clip-rule:evenodd;stroke-linecap:round;stroke-linejoin:round" viewBox="0 0 1024 1024"><g vectornator:layerName="Layer 1"><path vectornator:layerName="Rectangle 1" fill="none" stroke="#134e4a" stroke-linecap="butt" stroke-linejoin="miter" stroke-width="40" d="M141.14 179.922c0-73.219 59.356-132.575 132.575-132.575h476.57c73.219 0 132.575 59.356 132.575 132.575v664.156c0 73.219-59.356 132.574-132.575 132.574h-476.57c-73.219 0-132.575-59.355-132.575-132.574V179.922Z"/><path vectornator:layerName="Rectangle 2" fill="#134e4a" d="M458.799 432.233c0-16.03 12.995-29.025 29.025-29.025h234.571c16.03 0 29.025 12.995 29.025 29.025v13.838c0 16.03-12.995 29.025-29.025 29.025H487.824c-16.03 0-29.025-12.995-29.025-29.025v-13.838Z"/><path vectornator:layerName="Rectangle 3" fill="#134e4a" d="M293.509 258.93c0-19.851 16.092-35.944 35.944-35.944h365.094c19.852 0 35.944 16.093 35.944 35.944 0 19.852-16.092 35.944-35.944 35.944H329.453c-19.852 0-35.944-16.092-35.944-35.944Z"/><path vectornator:layerName="Rectangle 4" fill="#134e4a" d="M458.799 591.812c0-16.03 12.995-29.025 29.025-29.025h234.571c16.03 0 29.025 12.995 29.025 29.025v13.838c0 16.03-12.995 29.025-29.025 29.025H487.824c-16.03 0-29.025-12.995-29.025-29.025v-13.838Z"/><path vectornator:layerName="Rectangle 5" fill="#134e4a" d="M458.799 758.15c0-16.03 12.995-29.024 29.025-29.024h234.571c16.03 0 29.025 12.994 29.025 29.024v13.839c0 16.03-12.995 29.025-29.025 29.025H487.824c-16.03 0-29.025-12.995-29.025-29.025V758.15Z"/><path vectornator:layerName="Rectangle 6" fill="#134e4a" d="M272.58 436.81c0-18.558 15.044-33.602 33.602-33.602h6.925c18.558 0 33.602 15.044 33.602 33.602v4.684c0 18.558-15.044 33.602-33.602 33.602h-6.925c-18.558 0-33.602-15.044-33.602-33.602v-4.684Z"/><path vectornator:layerName="Rectangle 7" fill="#134e4a" d="M272.58 598.731c0-19.851 16.093-35.944 35.944-35.944h2.241c19.852 0 35.944 16.093 35.944 35.944 0 19.851-16.092 35.944-35.944 35.944h-2.241c-19.851 0-35.944-16.093-35.944-35.944Z"/><path vectornator:layerName="Rectangle 8" fill="#134e4a" d="M272.58 765.07c0-19.852 16.093-35.944 35.944-35.944h2.241c19.852 0 35.944 16.092 35.944 35.944 0 19.851-16.092 35.944-35.944 35.944h-2.241c-19.851 0-35.944-16.093-35.944-35.944Z"/></g></svg>

<?xml version="1.0" encoding="UTF-8" standalone="no"?>
<!DOCTYPE svg PUBLIC "-//W3C//DTD SVG 1.1//EN" "http://www.w3.org/Graphics/SVG/1.1/DTD/svg11.dtd">
<!-- Created with Vectornator (http://vectornator.io/) -->
<svg height="100%" stroke-miterlimit="10" style="fill-rule:nonzero;clip-rule:evenodd;stroke-linecap:round;stroke-linejoin:round;" version="1.1" viewBox="0 0 1024 1024" width="100%" xml:space="preserve" xmlns="http://www.w3.org/2000/svg" xmlns:vectornator="http://vectornator.io" xmlns:xlink="http://www.w3.org/1999/xlink">
<defs/>
<g id="Layer-1" vectornator:layerName="Layer 1">
<path d="M141.14 179.922C141.14 106.703 200.496 47.3475 273.715 47.3475L750.285 47.3475C823.504 47.3475 882.86 106.703 882.86 179.922L882.86 844.078C882.86 917.297 823.504 976.652 750.285 976.652L273.715 976.652C200.496 976.652 141.14 917.297 141.14 844.078L141.14 179.922Z" fill="none" opacity="1" stroke="#134e4a" stroke-linecap="butt" stroke-linejoin="miter" stroke-width="40" vectornator:layerName="Rectangle 1"/>
<path d="M458.799 432.233C458.799 416.203 471.794 403.208 487.824 403.208L722.395 403.208C738.425 403.208 751.42 416.203 751.42 432.233L751.42 446.071C751.42 462.101 738.425 475.096 722.395 475.096L487.824 475.096C471.794 475.096 458.799 462.101 458.799 446.071L458.799 432.233Z" fill="#134e4a" fill-rule="nonzero" opacity="1" stroke="none" vectornator:layerName="Rectangle 2"/>
<path d="M293.509 258.93C293.509 239.079 309.601 222.986 329.453 222.986L694.547 222.986C714.399 222.986 730.491 239.079 730.491 258.93L730.491 258.93C730.491 278.782 714.399 294.874 694.547 294.874L329.453 294.874C309.601 294.874 293.509 278.782 293.509 258.93L293.509 258.93Z" fill="#134e4a" fill-rule="nonzero" opacity="1" stroke="none" vectornator:layerName="Rectangle 3"/>
<path d="M458.799 591.812C458.799 575.782 471.794 562.787 487.824 562.787L722.395 562.787C738.425 562.787 751.42 575.782 751.42 591.812L751.42 605.65C751.42 621.68 738.425 634.675 722.395 634.675L487.824 634.675C471.794 634.675 458.799 621.68 458.799 605.65L458.799 591.812Z" fill="#134e4a" fill-rule="nonzero" opacity="1" stroke="none" vectornator:layerName="Rectangle 4"/>
<path d="M458.799 758.15C458.799 742.12 471.794 729.126 487.824 729.126L722.395 729.126C738.425 729.126 751.42 742.12 751.42 758.15L751.42 771.989C751.42 788.019 738.425 801.014 722.395 801.014L487.824 801.014C471.794 801.014 458.799 788.019 458.799 771.989L458.799 758.15Z" fill="#134e4a" fill-rule="nonzero" opacity="1" stroke="none" vectornator:layerName="Rectangle 5"/>
<path d="M272.58 436.81C272.58 418.252 287.624 403.208 306.182 403.208L313.107 403.208C331.665 403.208 346.709 418.252 346.709 436.81L346.709 441.494C346.709 460.052 331.665 475.096 313.107 475.096L306.182 475.096C287.624 475.096 272.58 460.052 272.58 441.494L272.58 436.81Z" fill="#134e4a" fill-rule="nonzero" opacity="1" stroke="none" vectornator:layerName="Rectangle 6"/>
<path d="M272.58 598.731C272.58 578.88 288.673 562.787 308.524 562.787L310.765 562.787C330.617 562.787 346.709 578.88 346.709 598.731L346.709 598.731C346.709 618.582 330.617 634.675 310.765 634.675L308.524 634.675C288.673 634.675 272.58 618.582 272.58 598.731L272.58 598.731Z" fill="#134e4a" fill-rule="nonzero" opacity="1" stroke="none" vectornator:layerName="Rectangle 7"/>
<path d="M272.58 765.07C272.58 745.218 288.673 729.126 308.524 729.126L310.765 729.126C330.617 729.126 346.709 745.218 346.709 765.07L346.709 765.07C346.709 784.921 330.617 801.014 310.765 801.014L308.524 801.014C288.673 801.014 272.58 784.921 272.58 765.07L272.58 765.07Z" fill="#134e4a" fill-rule="nonzero" opacity="1" stroke="none" vectornator:layerName="Rectangle 8"/>
</g>
</svg>
